X:1
T:Eichendorff-Lieder
T:Lieber Alles
T:11. Lieber Alles
T:Hugo Wolf
T:Eichendorff-Lieder
T:Joseph von Eichendorff (trans. Bernhoff)
T:OpenScore (CC0)
T:OpenScore (CC0)
T:OpenScore (CC0)
C:Hugo Wolf
Z:Joseph von Eichendorff
Z:OpenScore (CC0)
%%score 1 { ( 2 5 ) | ( 3 4 ) }
L:1/8
Q:1/4=140
M:6/8
K:G
V:1 treble nm="Voice"
V:2 treble nm="Piano"
V:5 treble 
V:3 bass 
V:4 bass 
V:1
"^Sehr schnell" z | z6 | z6 | z6 | z6 | z6 | z6 |[Q:1/4=130]"^rit." z6 |[Q:1/4=120]"^rit." z6 | %9
w: |||||||||
w: |||||||||
[Q:1/4=110]"^rit." z6 |[Q:1/4=100]"^rit." !fermata!z2 z z2[Q:1/4=90]"^Mässig" D | G2 G z G G | %12
w: |Sol-|dat sein ist ge-|
w: |I'd|ra- ther be no|
 B ^A z z2 A | B2 B"^zurückhaltend" d2 c |[Q:3/8=55] B2 ^A z2 ^c |[Q:3/8=53] d2 d d2 e | %16
w: fähr- lich, stu-|die- ren sehr be-|schwer- lich, das|Dich- ten süss und|
w: war- rior, a|stu- dent's lot is|sor- rier, I'd|rath- er be a|
[Q:3/8=51] d ^c z z2 e |[Q:3/8=50] =f2 f f2[Q:3/8=60]"^sehr beschleunigend" f | %18
w: zier- lich, der|Dich- ter gar pos-|
w: po- et: my|skill I soon would|
 =f e[Q:3/8=70] d (^cd) e |[Q:3/8=80] (_B3-[Q:3/8=90] B=B) ^c | %20
w: sier- lich in die- * sen|wil- * * den|
w: show it be- yond * the|cun- * ing of|
[Q:3/8=100] d D z z2[Q:1/4=165]"^Lebhaft" (_B/=c/) | d2 d d2 d | d2 ^c z2 c | d2 d =f2 d | %24
w: Zei- ten. Ich *|möcht' am lieb- sten|rei- ten, ein|gu- tes Schwert zur|
w: Norse- man. I'd *|rath- er be a|horse- man, my|spurs and ar- mour|
 ^c2 B z2 B | e2 e e2 e | e2 A z2 A | =f2 f f2 f | =f2 G z2 _E | _A2 c _e2 =f | _e2 c z2 _A | %31
w: Sei- ten, die|Lau- te in der|Rech- ten, Stu-|den- ten- herz zum|Fech- ten. Ein|wil- des Ross ist's|Le- ben, die|
w: ring- ing, to|lute's sweet num- bers|sing- ing. Like|bird in a- zure|wing- ing, my|wild steed on- ward|dash- ing, its|
 G2 c =e2 =f | e2 c z2 c | =f2 f fe ^d | e3 A2 e | d2 g d2 e | f2 g z2 z | z6 | z6 | z6 | z6 |] %41
w: Hu- fe Fun- ken|ge- ben, wer's|ehr- lich wagt, * be-|zwingt es, und|wo es tritt, da|klingt es!|||||
w: hoofs like light'- ning|flash- ing, and|thun- der- like * re-|sound- ing, its|rid- er's fame re-|dound- ing!|||||
V:2
!f! d | (d_e).e z z A | (dF).F z z G | z!<(! !>![G_A]!>![GA] z !>![G=A]!>![GA] | %4
 z !>![=F=B]!>![FB] z !>![Gc]!>![Gc]!<)! | z6 | z!ff! (_B=B c_b)b- |!>(! [cb]6- | %8
 [cb]3- [cb]2!>)!!p! ((^c | ^c) d2- d3- | !fermata!d3) z2 z | z2 z [DG] z z | %12
 z .[DGd].[^CG^c] .[CGc] z z | z2 [FB] z2 [G=c] | z [Ee]2 z2 z | z [Fd] z z [^Gd]2 | %16
 z3/4 (^B/4^c/) z/4 (^d/4e/) z/4 (^g/4a/) z/ z z | z3/4 (_c'/<_b/=a/4_a) z3/4 (c'/<_b/=a/4_a) | %18
 z3/4!<(! (^c/4d/) z/4 (e/4=f/) z/4 (g/4 [d^g]/)!<)! z/ z z | z2 z!f! [^ce]3 | %20
 z3/4!ff! A/<[^Fd]/ [Ae]/<[df]/ [ea]/4[dfd'] z z |!p! [D=F] z [DF] [D^F] z [DF] | %22
!<(! G>^GA x2 x!<)! |!p! [=FA=f] z [FAf] [F=cf] z [Fcf] |!<(! [c=f]>[cf][c^f] [Bg][Ba][Bb]!<)! | %25
!mf! [Beb] z [Beb] [Beb] z [Beb] |!<(! [A,A]>[B,B][^C^c] [Cc][Dd][Ee]!<)! | %27
!mf! [=FA=f] z [FAf] [F_Af] z [FAf] |!<(! [G,G]>[=A,=A][=B,=B] [Cc][Dd][_EG_e]!<)! | %29
!f! [_E_Ac_e] z [EAce] [EG=Be] z [EGBe] |!<(! [_E_Ac_e]>[_A,A][_B,_B] [Cc][_D_d][Ee]!<)! | %31
!f! [=EGc=e]z[EGce] [E^G=Be]z[EGBe] |!<(! [E=GBe]>[Cc][Dd] [Ee][^F^f]!<)![Gg] | %33
!ff! [Ac=fa]z[Acfa] [Acfa]z[Acfa] | [^GBe^g]>[Aa][Bb] [ceac'][dd'][ee'] | %35
 [dbd']2 [ec'e'] [dbd']>[cac'][Bgb] | [Acfa] z z [GBdg] z!ff! [gbg'] | %37
 [ec'e']2 [fc'f'] [dbd']2 [gbg'] | [ec'e']2 [fc'f'] [dbd']2 [gbg'] | [Ece]2 [Fcf] [Ece]2 [Fcf] | %40
 e>gf g z z |] %41
V:3
 z | z2 z[K:treble] !>![C_EFA] z z | z2 z !>![_B,DG] z z | z6 | %4
 z !>![D_B]!>![DB] z !>![_EB]!>![EB] | z6 | z (_B,=B,"^poco rit." C_B)B- | B6- | B6- | B3 A3- | %10
 A3 z2 z |[K:bass] z2 z =B, z z | z .[E,G,E].[E,G,E] .[E,G,E] z z | z2 D z2 [E,G,E] | %14
 z (.[F,^C].[F,C] .[F,C]) z z | z [B,D] z z [_B,E]2 | z [A,^C=G][A,CG] [A,CG] z z | %17
 z3/4[K:treble] (G/<_A/=A/4=B) z3/4 (G/<_A/=A/4=B) | z [_B,D_B][B,DB] [B,DB] z z | %19
[K:bass] z3/2!f! (A,,/4=B,,/4^C,/4D,/4E,/4^F,/4 G,) z2 | %20
 z3/4 [D,A,D]/<[D,A,D]/ [D,A,D]/<[D,A,D]/ [D,A,D]/4[D,A,D] z2 | %21
 [_B,,=F,_B,] z [B,,F,B,] [B,,^F,B,] z [B,,F,B,] | [A,,E,A,]>[A,E][A,E] [A,E][A,D][A,^C] | %23
 [D,A,D] z [D,A,D] [_A,=C] z [A,C] | [G,DG]>[G,DG][G,_E^F] [G,D=F][G,DF][G,DF] | %25
 [C,G,C] z [CG] [CG] z [CG] | [=F,,^C,=F,]>[F,,C,F,][F,,C,F,] [F,,A,,F,][F,,B,,F,][F,,C,F,] | %27
 [D,A,D] z [D,A,D] [D,_B,D] z [D,B,D] | [_E,,G,,_E,] z [E,,G,,E,] [_E,G,_E][E,G,D][E,G,_D] | %29
 !arpeggio![_A,,_E,C] z z !arpeggio![A,,E,=B,] z z | %30
 [_A,,,_A,,]>[A,,,A,,][_B,,,_B,,] [C,,C,][_D,,_D,][_E,,_E,] | %31
 !arpeggio![C,G,C] z z !arpeggio![C,^G,=B,] z z | [C,,C,]>[C,,C,][D,,D,] [E,,E,][^F,,^F,][G,,G,] | %33
 !arpeggio![=F,,C,A,] z z !arpeggio![F,,C,A,] z z | %34
 !arpeggio![^G,,E,B,] z z !arpeggio![A,,E,C] z z | !arpeggio![D,G,B,D] z z z2 z | %36
 !arpeggio![D,A,F] z z !arpeggio![G,,D,B,] z z | !arpeggio![D,A,F]3 !arpeggio![G,B,D]>[A,C][G,B,] | %38
 !arpeggio![D,A,F]3 !arpeggio![G,B,D]>[A,C][G,B,] | !arpeggio![C,G,C]2 [D,A,] [C,G,C]2 [D,A,] | %40
 !arpeggio![C,G,C]2 [D,A,] !arpeggio![G,,D,B,] z2 |] %41
V:4
 x | x3[K:treble] x3 | x6 | x6 | x6 | x6 | x6 | [_EG]6- | ([EG]6 | [D^F]6-) | [DF]3 x2 x | %11
[K:bass] x6 | x6 | x6 | x6 | x6 | x6 | z[K:treble] DD z DD | x6 |[K:bass] x6 | x6 | x6 | x6 | x6 | %24
 x6 | x6 | x6 | x6 | x6 | x6 | x6 | x6 | x6 | x6 | x6 | x6 | x6 | x6 | x6 | x6 | x6 |] %41
V:5
 x | x6 | x6 | x6 | x6 | x6 | x6 | x6 | x6 | x6 | x6 | x6 | x6 | x6 | x (.B.^A .A) z z | x6 | x6 | %17
 z =FF z FF | x6 | x2 x (([_B_b] [Aa]2)) | x6 | x6 | D>=GG [G^c][Gd][Ge] | x6 | x6 | x6 | x6 | x6 | %28
 x6 | x6 | x6 | x6 | x6 | x6 | x6 | x6 | x6 | x6 | x6 | x6 | [Ec]2 [Fc] [GB] x x |] %41

